X: 5
T: The Gallowglass
R: jig
M: 6/8
L: 1/8
K: Amin
A/2B/2|:cBA eBd|cAA A2 A/2B/2|cBA e^fg|dBG G2 A/2B/2|
cBA eBd|cea e2 d|cBA ^GAB|1 cAA A2 A/2B/2:|2 cAA A2 e||
|:a^ga efd|cAA A2A/2B/2|cBA e^fg|dBG G2 e|
a^ga efd|cde fed|cBA ^GAB|cAA A2 e|
a^ga efd|cAA A2 A/2B/2|cBA e^fg|dBG G2 e|
aeg fdB|ecA B^GE|ABc dBe|cAA A2||


Tune 1369	Setting 1369

